Sources/FrostedUI/Resources/Icons.xcassets/handWave20.imageset/hand-wave-20.svg

<svg width="20" height="20" viewBox="0 0 20 20" fill="none" xmlns="http://www.w3.org/2000/svg" data-fui-icon="true">
  <path
    d="M7.15039 2.84033C7.93134 2.05938 9.19842 2.05951 9.97949 2.84033L11.2715 4.1333C11.4294 3.71618 11.6758 3.32386 12.0117 2.98779C12.4672 2.53234 13.2064 2.53246 13.6621 2.98779L16.7559 6.08154C19.4893 8.81521 19.4894 13.2474 16.7559 15.981C14.0223 18.7145 9.59008 18.7143 6.85645 15.981L3.02637 12.1509C2.24532 11.3698 2.24532 10.1028 3.02637 9.32178C3.15349 9.19471 3.29472 9.0901 3.44336 9.00439C2.84156 8.2202 2.89734 7.09338 3.61523 6.37549C3.80963 6.18112 4.03486 6.0356 4.27441 5.93799C4.10183 5.27411 4.27391 4.53914 4.79395 4.01904C5.31382 3.49917 6.04824 3.3273 6.71191 3.49951C6.8095 3.25971 6.95588 3.03492 7.15039 2.84033ZM2.34961 13.4985C2.75808 13.4321 3.14397 13.7083 3.21094 14.1167C3.24835 14.3454 3.43738 14.7577 3.77832 15.1685C4.1157 15.5748 4.50413 15.8632 4.83789 15.9624C5.23484 16.0803 5.46138 16.4971 5.34375 16.894C5.22592 17.2909 4.80902 17.5174 4.41211 17.3999C3.68848 17.1851 3.06617 16.659 2.62402 16.1265C2.1853 15.5979 1.82524 14.9444 1.72949 14.3589C1.66295 13.9503 1.94097 13.5653 2.34961 13.4985ZM8.91895 3.90088C8.72374 3.70592 8.40711 3.70592 8.21191 3.90088C8.01674 4.09606 8.01689 4.41263 8.21191 4.60791L11.1582 7.5542C11.451 7.84699 11.4508 8.32183 11.1582 8.61475C10.8653 8.90764 10.3905 8.90764 10.0977 8.61475L6.56152 5.07959C6.36626 4.88447 6.0497 4.88438 5.85449 5.07959C5.65937 5.2748 5.6594 5.59138 5.85449 5.78662L9.39062 9.32178C9.68351 9.61467 9.68351 10.0904 9.39062 10.3833C9.09773 10.6762 8.62199 10.6762 8.3291 10.3833L5.38281 7.43604C5.18755 7.24134 4.87087 7.24106 4.67578 7.43604C4.48069 7.63112 4.48104 7.94776 4.67578 8.14307L8.21191 11.6792C8.50444 11.972 8.50451 12.4469 8.21191 12.7397C7.91902 13.0326 7.44328 13.0326 7.15039 12.7397L4.79395 10.3833C4.59868 10.188 4.28218 10.188 4.08691 10.3833C3.89184 10.5786 3.89171 10.8951 4.08691 11.0903L7.91699 14.9204C10.0648 17.068 13.5475 17.0681 15.6953 14.9204C17.8431 12.7726 17.8429 9.28997 15.6953 7.14209L12.8623 4.30908C12.5955 4.70345 12.5046 5.18064 12.5957 5.6333C12.6613 5.9591 12.8195 6.27019 13.0732 6.52393L13.8438 7.29443C14.0932 7.54424 14.1875 7.90499 14.1006 8.23975L14.0527 8.38037C13.6779 9.25504 13.874 10.27 14.5469 10.9429C14.8392 11.2357 14.8393 11.7106 14.5469 12.0034C14.2541 12.2962 13.7783 12.2961 13.4854 12.0034C12.4634 10.9812 12.1127 9.47934 12.5508 8.12256L12.0117 7.58447C11.6033 7.17598 11.3262 6.68323 11.1807 6.1626L8.91895 3.90088ZM14.5117 1.16162C15.9375 1.31524 17.1295 2.30485 17.5225 3.5376C17.648 3.93199 17.4304 4.35401 17.0361 4.47998C16.6415 4.60578 16.2196 4.38727 16.0938 3.99268C15.8879 3.34723 15.2089 2.74634 14.3516 2.65381C13.9398 2.6095 13.6414 2.23939 13.6855 1.82764C13.7299 1.41593 14.1 1.11743 14.5117 1.16162Z"
    fill="currentColor"
  />
</svg>

<svg xmlns="http://www.w3.org/2000/svg" width="20" height="20" fill="none" data-fui-icon="true" viewBox="0 0 20 20"><path fill="currentColor" d="M7.15 2.84c.781-.78 2.048-.78 2.83 0l1.291 1.293a3.2 3.2 0 0 1 .74-1.145 1.17 1.17 0 0 1 1.651 0l3.094 3.094a7 7 0 0 1-9.9 9.899l-3.83-3.83a2 2 0 0 1 .417-3.147 2 2 0 0 1 .831-3.066A1.998 1.998 0 0 1 6.712 3.5c.098-.24.244-.465.438-.66M2.35 13.5a.75.75 0 0 1 .86.618c.038.228.227.64.568 1.051.338.407.726.695 1.06.794a.75.75 0 0 1-.426 1.438c-.724-.215-1.346-.741-1.788-1.273-.439-.53-.799-1.183-.895-1.768a.75.75 0 0 1 .62-.86M8.919 3.9a.5.5 0 0 0-.707.707l2.946 2.946a.75.75 0 0 1-1.06 1.06L6.562 5.08a.5.5 0 0 0-.708.707l3.537 3.535a.751.751 0 0 1-1.062 1.061L5.383 7.436a.5.5 0 0 0-.707.707l3.536 3.536a.75.75 0 0 1-1.062 1.06l-2.356-2.356a.5.5 0 1 0-.707.707l3.83 3.83a5.5 5.5 0 0 0 7.778-7.778L12.862 4.31a1.746 1.746 0 0 0 .211 2.215l.77.77c.25.25.345.611.258.946l-.048.14a2.33 2.33 0 0 0 .494 2.563.75.75 0 0 1-1.062 1.06 3.83 3.83 0 0 1-.934-3.88l-.54-.539a3.24 3.24 0 0 1-.83-1.421zm5.593-2.74c1.425.154 2.617 1.144 3.01 2.377a.75.75 0 0 1-1.428.455c-.206-.646-.885-1.247-1.742-1.34a.75.75 0 0 1 .16-1.491"/></svg>
